svg/color/chsb.svg

<svg width="64" height="65" viewBox="0 0 64 65" fill="none" xmlns="http://www.w3.org/2000/svg">
<rect y="0.303711" width="64" height="64" rx="32" fill="#14E5BF"/>
<rect x="0.5" y="0.803711" width="63" height="63" rx="31.5" stroke="#070B14" stroke-opacity="0.15"/>
<path fill-rule="evenodd" clip-rule="evenodd" d="M37.0865 10.9704L33.5871 12.9566V29.8291L35.4977 30.9145V18.0653L42.059 21.7902L42.0651 21.7868L43.339 22.5087L44.4029 21.9087V20.8946L35.4977 15.8469V14.0905L37.0865 13.1893L46.3093 18.425V23.0849L41.8814 25.5831L41.7329 25.5098C41.4627 25.3771 41.1836 25.309 40.9035 25.309C39.849 25.309 38.9924 26.1775 38.9924 27.2448C38.9924 28.3116 39.849 29.18 40.9035 29.18C41.8809 29.18 42.6929 28.4325 42.7934 27.4423L42.8099 27.2752L47.2782 24.7528L51.4223 27.1063V37.5145L47.2735 39.8671L30.4129 30.2935V12.9571L26.9131 10.9704L15.7806 17.2911V23.0583L10.6667 25.9576V38.6356L15.7806 41.5392V47.3164L26.9131 53.6371L30.4129 51.6504V34.7412L28.5018 33.6563V46.5422L20.6606 42.0983L19.5972 42.6983V43.7124L28.5018 48.7606V50.5165L26.9131 51.4182L17.6913 46.1825V41.522L22.1187 39.0248L22.2672 39.0976C22.5378 39.2309 22.8165 39.2979 23.0965 39.2979C24.1505 39.2979 25.0076 38.43 25.0076 37.3627C25.0076 36.2954 24.1505 35.4274 23.0965 35.4274C22.1196 35.4274 21.3076 36.1745 21.2075 37.1657L21.1902 37.3327L16.7218 39.8542L12.5778 37.5016V27.093L16.7265 24.7404L33.5871 34.3139V51.6504L37.0865 53.6371L48.2199 47.3164V41.5487L53.3334 38.6494V25.9724L48.2199 23.0697V17.2911L37.0865 10.9704ZM17.6913 18.425L26.9131 13.1893L28.5018 14.0915V15.8464L17.6913 21.9748V18.425ZM18.6828 23.6322L28.5018 18.0643V29.2076L18.6828 23.6322ZM35.4977 35.3989L45.3178 40.9758L35.4977 46.5432V35.3989ZM35.4977 50.5165V48.7616L46.3093 42.6327V46.1825L37.0865 51.4182L35.4977 50.5165Z" fill="white"/>
</svg>

<svg xmlns="http://www.w3.org/2000/svg" width="64" height="65" fill="none" viewBox="0 0 64 65"><rect width="64" height="64" y=".304" fill="#14E5BF" rx="32"/><rect width="63" height="63" x=".5" y=".804" stroke="#070B14" stroke-opacity=".15" rx="31.5"/><path fill="#fff" fill-rule="evenodd" d="m37.087 10.97-3.5 1.987v16.872l1.91 1.085V18.066l6.562 3.725.006-.003 1.274.722 1.064-.6v-1.014l-8.905-5.048V14.09l1.589-.902 9.222 5.236v4.66l-4.428 2.498-.148-.073a1.9 1.9 0 0 0-.83-.201c-1.054 0-1.91.868-1.91 1.936 0 1.067.856 1.935 1.91 1.935.978 0 1.79-.747 1.89-1.738l.017-.167 4.468-2.522 4.144 2.353v10.408l-4.148 2.353-16.861-9.573V12.957l-3.5-1.987-11.132 6.321v5.767l-5.114 2.9v12.678l5.114 2.903v5.777l11.132 6.321 3.5-1.987V34.741l-1.911-1.085v12.886l-7.841-4.444-1.064.6v1.014l8.905 5.049v1.755l-1.589.902-9.222-5.236v-4.66l4.428-2.497.148.073c.27.133.55.2.83.2 1.053 0 1.91-.868 1.91-1.935s-.857-1.936-1.91-1.936c-.977 0-1.79.748-1.89 1.739l-.017.167-4.468 2.521-4.144-2.352V27.093l4.149-2.353 16.86 9.574V51.65l3.5 1.987 11.133-6.32v-5.768l5.113-2.9V25.972L48.22 23.07v-5.78zM17.69 18.425l9.222-5.236 1.589.902v1.755l-10.81 6.129zm.992 5.207 9.819-5.568v11.144zM35.498 35.4l9.82 5.577-9.82 5.567zm0 15.118v-1.755l10.811-6.13v3.55l-9.222 5.236z" clip-rule="evenodd"/></svg>
